X: 22293
T: La Rachoudine
R: three-two
M: 3/2
K: Amajor
|:c2 Ac dfec A2 BA|c2 Ac dfec A2 BA|c2 Ac afed c2 BA:|
|:Bcde fBBA BA B2-|Bcde fBBA BA B2-|BdcA B/B/BeB BeBe|
Bcde f2 f/f/f eagf|1 eA A/A/A:|2 eA A/A/A a4 e4||

